src/lib/packages/icons/src/assets/filled/football-helmet.svg

<svg width="24" height="24" viewBox="0 0 24 24" fill="none" xmlns="http://www.w3.org/2000/svg">
<path d="M21.5 13.4399C21.34 13.2999 21.13 13.2299 20.92 13.2499L16.07 13.7399L14.55 9.67992L19.05 9.26994C19.37 9.23993 19.59 8.91993 19.48 8.61993C18.21 5.09993 14.68 2.65993 10.65 3.04993C6.53998 3.44993 3.22999 6.90993 2.99999 11.0299C2.84999 13.7499 3.97997 16.2299 5.85997 17.8799C5.94997 17.9599 6.08 18.0099 6.2 18.0099H8.06999C9.24999 18.0099 10.32 18.6699 10.85 19.7299C10.93 19.8999 11.11 20.0099 11.3 20.0099H14.25C14.6 20.0099 14.85 19.6599 14.72 19.3299L13.21 15.5499L15.07 15.3599L16.56 19.3299C17.11 20.7899 18.52 21.7599 20.07 21.7599H20.99C21.4 21.7599 21.74 21.4199 21.74 21.0099V14.0099C21.74 13.7999 21.65 13.5999 21.49 13.4499L21.5 13.4399ZM9.01998 15.9999C8.46998 15.9999 8.01998 15.5499 8.01998 14.9999C8.01998 14.4499 8.46 13.9999 9.01 13.9999H9.01998C9.56998 13.9999 10.02 14.4499 10.02 14.9999C10.02 15.5499 9.56998 15.9999 9.01998 15.9999ZM12.85 14.0599C12.78 14.0599 12.72 14.0999 12.65 14.1199L11.75 11.8599C11.38 10.9299 12.01 9.89993 13.01 9.80993H13.05C13.05 9.86993 13.05 9.93993 13.08 10.0099L14.54 13.8899L12.85 14.0599ZM20.25 14.8299V16.3199L17.16 16.6299L16.62 15.1999L20.25 14.8399V14.8299ZM20.08 20.2499C19.15 20.2499 18.3 19.6599 17.97 18.7899L17.7 18.0799L20.24 17.8299V20.2499H20.07H20.08Z" fill="currentColor"/>
</svg>

<svg xmlns="http://www.w3.org/2000/svg" width="24" height="24" fill="none"><path fill="currentColor" d="M21.5 13.44a.772.772 0 0 0-.58-.19l-4.85.49-1.52-4.06 4.5-.41c.32-.03.54-.35.43-.65a8.496 8.496 0 0 0-8.83-5.57c-4.11.4-7.42 3.86-7.65 7.98-.15 2.72.98 5.2 2.86 6.85.09.08.22.13.34.13h1.87c1.18 0 2.25.66 2.78 1.72a.5.5 0 0 0 .45.28h2.95a.5.5 0 0 0 .47-.68l-1.51-3.78 1.86-.19 1.49 3.97a3.765 3.765 0 0 0 3.51 2.43h.92c.41 0 .75-.34.75-.75v-7c0-.21-.09-.41-.25-.56l.01-.01ZM9.02 16c-.55 0-1-.45-1-1s.44-1 .99-1h.01c.55 0 1 .45 1 1s-.45 1-1 1Zm3.83-1.94c-.07 0-.13.04-.2.06l-.9-2.26c-.37-.93.26-1.96 1.26-2.05h.04c0 .06 0 .13.03.2l1.46 3.88-1.69.17Zm7.4.77v1.49l-3.09.31-.54-1.43 3.63-.36v-.01Zm-.17 5.42c-.93 0-1.78-.59-2.11-1.46l-.27-.71 2.54-.25v2.42h-.17.01Z"/></svg>
